contributed-vectors/depop.svg

<svg xmlns="http://www.w3.org/2000/svg" xml:space="preserve" style="fill-rule:evenodd;clip-rule:evenodd;stroke-linejoin:round;stroke-miterlimit:2" viewBox="0 0 192 192"><path d="M164.5 21.5c0-5.519-4.481-10-10-10h-133c-5.519 0-10 4.481-10 10v133c0 5.519 4.481 10 10 10h133c5.519 0 10-4.481 10-10v-133Z" style="fill:#e85e5c" transform="translate(8 8)"/><path d="M78.508 141.21a31.18 31.18 0 0 1-31.178-31.178v-.004A31.177 31.177 0 0 1 78.508 78.85h29.964V49.29h29.858v91.92H78.508Zm29.964-43.054H90.021a11.877 11.877 0 0 0-11.874 11.874v.001a11.874 11.874 0 0 0 11.874 11.874h18.451V98.156Z" style="fill:#4a4a4a" transform="matrix(.77206 0 0 .77206 21.16 21.711)"/></svg>

<?xml version="1.0" encoding="UTF-8" standalone="no"?>
<!DOCTYPE svg PUBLIC "-//W3C//DTD SVG 1.1//EN" "http://www.w3.org/Graphics/SVG/1.1/DTD/svg11.dtd">
<svg width="100%" height="100%" viewBox="0 0 192 192" version="1.1" xmlns="http://www.w3.org/2000/svg" xmlns:xlink="http://www.w3.org/1999/xlink" xml:space="preserve" xmlns:serif="http://www.serif.com/" style="fill-rule:evenodd;clip-rule:evenodd;stroke-linejoin:round;stroke-miterlimit:2;">
    <g id="Layer1">
        <g transform="matrix(1,0,0,1,8,8)">
            <path d="M164.5,21.5C164.5,15.981 160.019,11.5 154.5,11.5L21.5,11.5C15.981,11.5 11.5,15.981 11.5,21.5L11.5,154.5C11.5,160.019 15.981,164.5 21.5,164.5L154.5,164.5C160.019,164.5 164.5,160.019 164.5,154.5L164.5,21.5Z" style="fill:rgb(232,94,92);"/>
        </g>
        <g transform="matrix(0.772059,0,0,0.772059,21.1597,21.7114)">
            <path d="M78.508,141.21C70.239,141.21 62.308,137.925 56.461,132.078C50.614,126.231 47.33,118.301 47.33,110.032L47.33,110.028C47.33,101.759 50.614,93.829 56.461,87.982C62.308,82.135 70.239,78.85 78.508,78.85L108.472,78.85L108.472,49.29L138.33,49.29L138.33,141.21L78.508,141.21ZM108.472,98.156L90.021,98.156C86.872,98.156 83.852,99.407 81.625,101.633C79.398,103.86 78.147,106.88 78.147,110.03L78.147,110.031C78.147,113.18 79.398,116.2 81.625,118.427C83.852,120.654 86.872,121.905 90.021,121.905L108.472,121.905L108.472,98.156Z" style="fill:rgb(74,74,74);"/>
        </g>
    </g>
</svg>
